!!!COM:	la Rue, Pierre de
!!!CDT:	~1452///-1518/11/20
!!!OPR:	Missa Tandernaken
!!!ONM:	2
!!!OTL:	Gloria
!!!AGN:	Mass; Gloria
!!!SCT:	Rue1030b
!!!SCA:	Rue1030b
!!!voices-OPR:	4
!!!voices:	4
**kern	**kern	**kern	**kern
*staff4	*staff3	*staff2	*staff1
*Ivox	*Ivox	*Ivox	*Ivox
*I"Bassus	*I"Tenor	*I"Contra	*I"Discantus
*I'B	*I'T	*I'C	*I'D
*clefF4	*clefGv2	*clefGv2	*clefG2
*k[b-]	*k[b-]	*k[b-]	*k[]
*M2/1	*M2/1	*M2/1	*M2/1
*met(C|)	*met(C|)	*met(C|)	*met(C|)
!!section: Et in terra pax
!!!OMD: Et in terra pax
=1-	=1-	=1-	=1-
2.D\	[0A	2.d\	2.a/
4D\	.	4d\	4a/
2D\	.	2d\	2a/
2D\	.	2d\	2a/
=2	=2	=2	=2
2D\	0A]	2d\	2f/
2D\	.	2D/	2f/
2C/	.	2E/	2e/
2C/	.	2E/	2e/
=3	=3	=3	=3
1BB-	1B-	2F/	2d/
.	.	2D/	2g/
1r	1A	2F/	2a/
.	.	2A/	2f/
=4	=4	=4	=4
0r	0G	1B-	4g/
.	.	.	4f/
.	.	.	4e/
.	.	.	4d/
.	.	1B-	1e
=5	=5	=5	=5
2r	0F	2A/	[0f
2D\	.	2A/	.
2D\	.	2B-\	.
2D\	.	2B-\	.
=6	=6	=6	=6
[0F	1F	2A/	0f]
.	.	2A/	.
.	[1A	2A/	.
.	.	2F/	.
=7	=7	=7	=7
0F]	1A]	2.A/	1r
.	.	4B-\	.
.	1A	1c	2r
.	.	.	2a/
=8	=8	=8	=8
0r	0d	0r	2a/
.	.	.	2f/
.	.	.	2a/
.	.	.	2b\
=9	=9	=9	=9
0r	1c	0r	2cc\
.	.	.	1a
.	1A	.	.
.	.	.	2a/
=10	=10	=10	=10
0r	0B-	1r	2g/
.	.	.	1g
.	.	2r	.
.	.	2d\	2g/
=11	=11	=11	=11
1r	0A	2f\	1a
.	.	2e\	.
2D\	.	2d\	2r
2AA/	.	2c\	2e/
=12	=12	=12	=12
2D\	1A	2d\	2f/
2AA/	.	2c\	2e/
2D\	[1A	2.f\	2d/
2AA/	.	.	2c/
.	.	4e\	.
=13	=13	=13	=13
1D	1A]	2d\	2f/
.	.	2D/	2f/
1AA	1A	2E/	1e
.	.	2E/	.
=14	=14	=14	=14
0r	0c	2E/	2r
.	.	2F/	2a/
.	.	2E/	2g/
.	.	2F/	2a/
=15	=15	=15	=15
0r	1c	2E/	2g/
.	.	2C/	2e/
.	[1A	1r	2.f/
.	.	.	4g/
=16	=16	=16	=16
2.D\	1A]	2r	1a
.	.	2F/	.
4D\	.	.	.
2D\	1A	2F/	1d
2D\	.	2F/	.
=17	=17	=17	=17
2D\	0F	2A/	0r
1D	.	2A/	.
.	.	2D/	.
2BB-/	.	2D/	.
=18	=18	=18	=18
2AA/	1F	1C	1r
2AA/	.	.	.
[1GG	[1G	1r	2d/
.	.	.	2e/
=19	=19	=19	=19
1GG]	1G]	0r	2d/
.	.	.	1g
2.BB-/	1G	.	.
.	.	.	2g/
4BB-/	.	.	.
=20	=20	=20	=20
1AA	0A	0r	2cc\
.	.	.	2cc\
1AA	.	.	2cc\
.	.	.	2a/
=21	=21	=21	=21
0r	1G	2r	2.b-i\
.	.	4G/	.
.	.	4A/	4cc\
.	1F	4B-\	1a
.	.	4c\	.
.	.	[2d\	.
=22	=22	=22	=22
0r	0E	2d\]	1g
.	.	4c#i\	.
.	.	4Bni\	.
.	.	1c#i	1r
=23	=23	=23	=23
0r	0D	[0d	2r
.	.	.	2a/
.	.	.	2a/
.	.	.	2a/
=24	=24	=24	=24
2r	1D	0d]	2f/
2A\	.	.	2d/
2A\	[1D	.	2.f/
2A\	.	.	.
.	.	.	4g/
=25	=25	=25	=25
2F\	1D]	0r	[0a
2D\	.	.	.
2.F\	1D	.	.
4G\	.	.	.
=26	=26	=26	=26
0A	0F	2r	0a]
.	.	2d\	.
.	.	2c\	.
.	.	2c\	.
=27	=27	=27	=27
0r	1F	2d\	0r
.	.	2f\	.
.	[1F	2f\	.
.	.	2d\	.
=28	=28	=28	=28
1r	1F]	1c	1r
2.D\	1F	2d\	2r
.	.	2d\	[2a/
4D\	.	.	.
=29	=29	=29	=29
1AA	0c	2c\	4a/]
.	.	.	4a/
.	.	1A	2a/
2AA/	.	.	2cc\
2AA/	.	2A/	2cc\
=30	=30	=30	=30
2BB-/	1B-	2D/	2g/
2GG/	.	2D/	2g/
2D\	1A	1D	2a/
2F\	.	.	[2f/
=31	=31	=31	=31
0C	0G	2E/	2f/]
.	.	2C/	4e/
.	.	.	4d/
.	.	1c	1e
=32	=32	=32	=32
1D	0F	2r	[0f
.	.	2B-\	.
2r	.	2A/	.
2BB-/	.	4B-\	.
.	.	4B-\	.
=33	=33	=33	=33
2AA/	1F	2c\	0f]
2BB-/	.	2d\	.
2D\	[1F	2f\	.
2D\	.	2f\	.
=34	=34	=34	=34
1BB-	1F]	2d\	0r
.	.	2B-\	.
1r	1F	2c\	.
.	.	2c\	.
=35	=35	=35	=35
0r	0c	2A/	2r
.	.	2A/	2a/
.	.	1F	2a/
.	.	.	2a/
=36	=36	=36	=36
2r	1c	1r	2g/
2AA/	.	.	2a/
2AA/	[1A	2r	2cc\
2AA/	.	2c\	2cc\
=37	=37	=37	=37
2C/	1A]	2c\	1a
2C/	.	4c\	.
.	.	4c\	.
1AA	1A	2c\	1r
.	.	2c\	.
=38	=38	=38	=38
2r	0B-	2d\	1g
2GG/	.	2G/	.
1GG	.	1G	1d
=39	=39	=39	=39
1GG	1B-	1G	1d
2AA/	[1A	1E	2c/
2AA/	.	.	2e/
=40	=40	=40	=40
2D\	1A]	1r	2f/
2D\	.	.	2f/
2AA/	1A	2r	2e/
2C/	.	2e\	2c/
=41	=41	=41	=41
2BB-/	0d	2f\	2d/
2BB-/	.	2f\	2.f/
2D\	.	2f\	.
.	.	.	4g/
2D\	.	2d\	4a/
.	.	.	4b\
=42	=42	=42	=42
2AA/	1c	1e	4cc\
.	.	.	4a/
2AA/	.	.	1cc
1C	1A	1c	.
.	.	.	4b\
.	.	.	4a/
=43	=43	=43	=43
1BB-	0B-	1d	2.g/
.	.	.	4f/
1GG	.	1D	1g
=44	=44	=44	=44
1r	[0Al	1r	[0a
[1D	.	[1F	.
=45	=45	=45	=45
1D]	0A_	1F]	0a]
1AA	.	1E	.
=46	=46	=46	=46
0AAl	0A]	0El	0al
==	==	==	==
*-	*-	*-	*-
!!!RDF**kern: l=long note in original notation
!!!RDF**kern: i=editorial accidental
!!!ENC:	Chris Gage 05-24-2013
!!!END:	2013/08/04/
!!!EED:	Jesse Rodin
!!!EEV:	2013/08/05/
!!!ONB:	Translated from MusicXML and edited on 2013/08/05/ by Craig Sapp
!!muse2ps: T^@{OPR}^u^@{ONM}{. }@{OTL}^C^@{COM}^i2I150v85,85,85,150Q16
